packages/oc-pages/vue_shared/components/oc/icons/aws.svg

<svg width="24" height="24" viewBox="0 0 24 24" fill="none" xmlns="http://www.w3.org/2000/svg">
<g id="aws">
<g id="aws_2">
<path id="Vector" d="M0 14.5962C0.142857 14.4053 0.238096 14.4053 0.428572 14.5485C1.80952 15.3601 3.28572 15.9808 4.80953 16.506C6 16.8879 7.19048 17.1744 8.42857 17.3653C9.90476 17.604 11.381 17.6995 12.8571 17.6518C13.619 17.6518 14.381 17.5563 15.0952 17.4608C16.6191 17.2698 18.1429 16.9356 19.6191 16.4105C20.1905 16.2195 20.7143 16.0285 21.2857 15.7898C21.4286 15.7421 21.5714 15.6943 21.7143 15.7898C21.9048 15.8853 21.9524 16.124 21.8095 16.2672C21.7619 16.315 21.7143 16.3627 21.6667 16.4105C20.4286 17.3176 19.0476 17.986 17.5714 18.4634C16.5238 18.7976 15.4762 19.0363 14.381 19.1796C13.7619 19.275 13.1905 19.3228 12.5714 19.3228H12.5238C12.1429 19.3228 11.8095 19.3228 11.4286 19.3228C11.4286 19.275 11.381 19.3228 11.381 19.3228C11.2381 19.3228 11.0952 19.3228 10.9524 19.3228C10.2857 19.275 9.66667 19.2273 9.04762 19.1318C8.14286 18.9886 7.2381 18.7499 6.33334 18.4634C4.14286 17.7473 2.14286 16.6014 0.380954 15.0737C0.238097 14.9782 0.0952381 14.835 0 14.6917C0 14.644 0 14.5962 0 14.5962Z" fill="#FE9A01"/>
<path id="Vector_2" d="M10.3333 10.8724C10.3809 10.6814 10.4285 10.4427 10.4762 10.2517C10.8571 8.72397 11.1904 7.1962 11.5714 5.66843C11.6666 5.33423 11.7619 5.23875 12.0952 5.23875C12.2857 5.23875 12.5238 5.23875 12.7143 5.23875C13 5.23875 13.0952 5.33423 13.1428 5.57295C13.2381 5.95489 13.3333 6.28909 13.3809 6.67103C13.7142 8.05557 14.0476 9.48785 14.3809 10.8724C14.3809 10.8724 14.3809 10.9201 14.4285 10.9201C14.4762 10.6814 14.5238 10.4904 14.619 10.2517C15 8.72397 15.4285 7.1962 15.8095 5.62069C15.9047 5.28649 16 5.19101 16.3333 5.19101C16.5714 5.19101 16.7619 5.19101 17 5.19101C17.1428 5.19101 17.2381 5.23875 17.1904 5.42972C17.1904 5.57295 17.1428 5.66843 17.0952 5.76392C16.4762 7.76911 15.8571 9.82205 15.1904 11.8272C15.0476 12.2092 15 12.2569 14.619 12.2569C14.4285 12.2569 14.1904 12.2569 14 12.2569C13.7619 12.2569 13.6666 12.1614 13.619 11.9227C13.4762 11.3498 13.3333 10.8246 13.2381 10.2517C12.9523 9.10591 12.6666 7.96008 12.4285 6.81426C12.4285 6.81426 12.4285 6.76651 12.3809 6.71877C12.2857 7.10071 12.1904 7.43491 12.1428 7.76911C11.8095 9.10591 11.4762 10.4427 11.1904 11.8272C11.0952 12.1614 11.0476 12.2092 10.6666 12.2092C10.4285 12.2092 10.1904 12.2092 9.95235 12.2092C9.80949 12.2092 9.71426 12.1137 9.61902 11.9705C9.52378 11.684 9.42854 11.3976 9.3333 11.0634C8.76187 9.24914 8.23807 7.43491 7.66664 5.62069C7.61902 5.5252 7.61902 5.42972 7.61902 5.33423C7.61902 5.19101 7.66664 5.09552 7.8095 5.09552C8.09521 5.09552 8.38092 5.09552 8.66664 5.09552C8.80949 5.09552 8.95235 5.19101 8.99997 5.33423C9.09521 5.62069 9.19045 5.95489 9.23807 6.24134C9.5714 7.8646 9.90473 9.34462 10.3333 10.8724Z" fill="#A0A0A0"/>
<path id="Vector_3" d="M5.57149 11.3976C5.3334 11.684 5.04768 11.9705 4.71435 12.1137C3.95245 12.5434 3.14292 12.6389 2.28578 12.3047C1.57149 12.066 1.19054 11.493 1.0953 10.7769C1.00007 10.2995 1.04768 9.77431 1.28578 9.34463C1.61911 8.77171 2.14292 8.38977 2.76197 8.24654C3.28578 8.10331 3.85721 8.10331 4.38102 8.15106C4.71435 8.1988 5.04768 8.24654 5.38102 8.34203C5.42864 8.34203 5.47625 8.34203 5.47625 8.29429C5.47625 7.91234 5.47626 7.5304 5.42864 7.14846C5.28578 6.52781 4.95245 6.24135 4.3334 6.14586C3.57149 6.05038 2.85721 6.19361 2.14292 6.48006C2.00006 6.5278 1.90483 6.57555 1.76197 6.62329C1.61911 6.67103 1.52387 6.62329 1.52387 6.48006C1.52387 6.28909 1.52387 6.09812 1.52387 5.90715C1.52387 5.76392 1.61911 5.66844 1.76197 5.62069C2.04768 5.47746 2.3334 5.33424 2.66673 5.28649C3.47626 5.04778 4.23816 5.04778 5.04768 5.19101C5.57149 5.2865 6.04768 5.52521 6.38102 6.00263C6.61911 6.38458 6.76197 6.76652 6.80959 7.24395C6.80959 7.43492 6.80959 7.62589 6.80959 7.81686C6.80959 8.58074 6.80959 9.34463 6.80959 10.0608C6.80959 10.2995 6.80959 10.5382 6.85721 10.7769C6.90483 11.0634 7.04768 11.3021 7.14292 11.5408C7.23816 11.7318 7.23816 11.875 7.04768 12.0182C6.90483 12.1137 6.76197 12.2092 6.61911 12.3047C6.42864 12.4479 6.28578 12.4002 6.0953 12.2569C5.95245 12.066 5.80959 11.875 5.71435 11.684C5.61911 11.5408 5.57149 11.4453 5.57149 11.3976ZM4.00007 9.05817C3.85721 9.05817 3.61911 9.05817 3.42864 9.10591C2.95245 9.2014 2.61911 9.44011 2.47626 9.96528C2.42864 10.1085 2.42864 10.2995 2.42864 10.4905C2.47626 11.0156 2.76197 11.3498 3.28578 11.4453C3.80959 11.5408 4.28578 11.4453 4.71435 11.1589C5.0953 10.9201 5.3334 10.6337 5.42864 10.1563C5.47626 9.8698 5.47625 9.63108 5.47625 9.34463C5.47625 9.24914 5.42864 9.24914 5.38102 9.24914C4.95245 9.10591 4.52387 9.05817 4.00007 9.05817Z" fill="#A0A0A0"/>
<path id="Vector_4" d="M20.4285 5C20.9999 5 21.5238 5.09548 22.0476 5.28646C22.0952 5.28646 22.1904 5.3342 22.238 5.38194C22.5238 5.47743 22.6666 5.6684 22.619 6.0026C22.619 6.09808 22.619 6.24131 22.619 6.3368C22.619 6.48002 22.5238 6.52777 22.3809 6.48002C22.1904 6.43228 22.0476 6.3368 21.8571 6.28905C21.238 6.09808 20.5714 6.05034 19.9523 6.14583C19.8571 6.14583 19.7619 6.19357 19.6666 6.24131C19.3809 6.38454 19.238 6.57551 19.1904 6.86197C19.1428 7.19617 19.2857 7.48262 19.5238 7.67359C19.7619 7.81682 20.0476 7.91231 20.3333 8.00779C20.8095 8.15102 21.3333 8.29425 21.8095 8.48522C22.3333 8.72393 22.7619 9.05813 22.9523 9.5833C23.238 10.4427 22.9999 11.3975 22.0476 12.0182C21.619 12.3046 21.1428 12.4479 20.6666 12.4956C19.8095 12.5911 19.0476 12.4479 18.238 12.1614C18.1428 12.1137 18.0476 12.0659 17.9523 12.0182C17.8095 11.9227 17.7142 11.7795 17.7142 11.6362C17.7142 11.493 17.7142 11.3498 17.7142 11.2066C17.7142 11.0156 17.8095 10.9201 17.9999 10.9678C18.238 11.0156 18.4285 11.1588 18.6666 11.2066C19.3333 11.3975 19.9999 11.493 20.7142 11.3498C20.9047 11.302 21.0952 11.2066 21.2857 11.1111C21.7142 10.7769 21.7619 10.013 21.1904 9.72653C20.9047 9.5833 20.619 9.48782 20.3333 9.39233C19.9047 9.2491 19.4761 9.15362 19.0476 8.96265C18.4285 8.67619 17.9999 8.24651 17.8095 7.62585C17.619 6.86197 17.8571 6.19357 18.4761 5.6684C18.9047 5.28646 19.4761 5.14323 20.0476 5.09549C20.238 5 20.3333 5 20.4285 5Z" fill="#A0A0A0"/>
<path id="Vector_5" d="M22.3334 13.9756C22.7619 13.9756 23.1429 14.0234 23.5715 14.1189C23.9048 14.2144 24 14.3098 24 14.6918C24 15.3124 23.8572 15.8854 23.6667 16.4583C23.4286 17.0789 23.0953 17.6996 22.6191 18.177C22.5238 18.2247 22.4762 18.3202 22.381 18.368C22.2857 18.4157 22.2381 18.4635 22.1429 18.368C22.0476 18.3202 22.0953 18.2247 22.1429 18.1293C22.3334 17.6041 22.5715 17.1267 22.7143 16.5538C22.8096 16.2673 22.8572 15.9808 22.9048 15.6466C22.9048 15.5512 22.9048 15.4079 22.9048 15.3124C22.8572 15.1692 22.8096 15.026 22.6191 14.9782C22.381 14.8828 22.1429 14.8828 21.9048 14.8828C21.2381 14.8828 20.5238 14.9305 19.8572 15.026C19.8096 15.026 19.7143 15.026 19.6667 15.026C19.5238 15.026 19.4762 14.9305 19.5238 14.7873C19.5715 14.7395 19.6191 14.644 19.6667 14.644C20.1429 14.3098 20.7143 14.1189 21.2857 14.0234C21.6191 13.9756 22 13.9756 22.3334 13.9756Z" fill="#FE9A01"/>
</g>
</g>
</svg>

<svg width="24" height="24" fill="none" xmlns="http://www.w3.org/2000/svg"><path d="M0 14.596c.143-.19.238-.19.429-.047 1.38.811 2.857 1.432 4.38 1.957 1.191.382 2.381.668 3.62.86 1.476.238 2.952.334 4.428.286.762 0 1.524-.096 2.238-.191a21.445 21.445 0 0 0 4.524-1.05 23.593 23.593 0 0 0 1.667-.621c.143-.048.285-.096.428 0 .19.095.238.334.096.477l-.143.143c-1.238.908-2.62 1.576-4.096 2.053a18.156 18.156 0 0 1-3.19.717c-.62.095-1.19.143-1.81.143H11.43c0-.048-.048 0-.048 0h-.429a23.397 23.397 0 0 1-1.904-.191c-.905-.143-1.81-.382-2.715-.669a17.221 17.221 0 0 1-5.952-3.39A1.45 1.45 0 0 1 0 14.693v-.096Z" fill="#FE9A01"/><path d="M10.333 10.872c.048-.19.095-.43.143-.62.381-1.528.714-3.056 1.095-4.584.096-.334.19-.43.524-.43h.62c.285 0 .38.096.428.335.095.382.19.716.238 1.098.333 1.385.667 2.817 1 4.201 0 0 0 .048.047.048.048-.239.096-.43.191-.668.381-1.528.81-3.056 1.19-4.631.096-.335.191-.43.524-.43H17c.143 0 .238.048.19.239 0 .143-.047.238-.095.334-.619 2.005-1.238 4.058-1.905 6.063-.142.382-.19.43-.571.43H14c-.238 0-.333-.096-.381-.334-.143-.573-.286-1.098-.38-1.671a89.532 89.532 0 0 1-.81-3.438s0-.047-.048-.095c-.095.382-.19.716-.238 1.05-.334 1.337-.667 2.674-.953 4.058-.095.334-.142.382-.523.382h-.715c-.143 0-.238-.095-.333-.239-.095-.286-.19-.572-.286-.907-.571-1.814-1.095-3.628-1.666-5.442-.048-.096-.048-.191-.048-.287 0-.143.048-.238.19-.238h.858c.142 0 .285.095.333.238.095.287.19.62.238.907.333 1.624.667 3.104 1.095 4.631ZM5.571 11.398c-.238.286-.523.572-.857.716-.762.43-1.571.525-2.428.19-.715-.238-1.095-.811-1.19-1.527-.096-.477-.048-1.003.19-1.432a2.286 2.286 0 0 1 1.476-1.098c.524-.144 1.095-.144 1.619-.096.333.048.667.096 1 .191.048 0 .095 0 .095-.048 0-.382 0-.764-.047-1.146-.143-.62-.477-.907-1.096-1.002-.762-.096-1.476.048-2.19.334-.143.048-.238.096-.381.143-.143.048-.238 0-.238-.143v-.573c0-.143.095-.239.238-.286.286-.144.571-.287.905-.335.81-.238 1.571-.238 2.38-.095.524.096 1 .334 1.334.812.238.382.381.764.429 1.24v2.818c0 .239 0 .477.047.716.048.286.19.525.286.764.095.19.095.334-.095.477l-.429.287c-.19.143-.333.095-.524-.048a3.978 3.978 0 0 1-.38-.573c-.096-.143-.144-.239-.144-.286Zm-1.57-2.34c-.144 0-.382 0-.572.048-.477.095-.81.334-.953.86-.047.143-.047.334-.047.525.047.525.333.859.857.954.524.096 1 0 1.428-.286.381-.239.62-.525.715-1.003.047-.286.047-.525.047-.811 0-.096-.047-.096-.095-.096-.429-.143-.857-.19-1.38-.19ZM20.428 5c.572 0 1.096.095 1.62.286a.36.36 0 0 1 .19.096c.286.095.429.286.381.62v.335c0 .143-.095.19-.238.143-.19-.048-.333-.143-.524-.191a4.311 4.311 0 0 0-1.905-.143c-.095 0-.19.048-.285.095-.286.144-.429.335-.477.621a.865.865 0 0 0 .334.812c.238.143.524.238.81.334.476.143 1 .286 1.476.477.523.239.952.573 1.142 1.098.286.86.048 1.815-.904 2.435-.429.287-.905.43-1.381.478-.858.095-1.62-.048-2.429-.335l-.286-.143c-.143-.095-.238-.239-.238-.382v-.43c0-.19.096-.286.286-.238.238.048.428.19.667.239.666.19 1.333.286 2.047.143.19-.048.381-.143.572-.239.428-.334.476-1.098-.096-1.384-.285-.144-.571-.24-.857-.335-.428-.143-.857-.238-1.285-.43-.62-.286-1.048-.715-1.238-1.336-.191-.764.047-1.432.666-1.958.429-.382 1-.525 1.572-.573.19-.095.285-.095.38-.095Z" fill="#263040"/><path d="M22.333 13.976c.429 0 .81.047 1.239.143.333.095.428.19.428.573 0 .62-.143 1.193-.333 1.766-.238.62-.572 1.242-1.048 1.719-.095.048-.143.143-.238.191-.095.048-.143.096-.238 0-.095-.048-.048-.143 0-.239.19-.525.428-1.002.571-1.575.096-.287.143-.573.19-.907v-.335c-.047-.143-.094-.286-.285-.334-.238-.095-.476-.095-.714-.095-.667 0-1.381.048-2.048.143h-.19c-.143 0-.19-.095-.143-.239.047-.048.095-.143.143-.143.476-.334 1.047-.525 1.619-.62.333-.048.714-.048 1.047-.048Z" fill="#FE9A01"/></svg>
